static/img/olake/olake-github.svg

<svg xmlns="http://www.w3.org/2000/svg" width="170" height="170" fill="none" viewBox="0 0 170 170"><g filter="url(#a)"><rect width="108.42" height="108.42" x="30.789" y="30.79" fill="#1f1f1f" rx="30.117"/><path fill="#fff" d="M84.793 64.79c-11.05 0-20 8.95-20 20 0 8.85 5.725 16.325 13.675 18.975 1 .175 1.375-.425 1.375-.95 0-.475-.025-2.05-.025-3.725-5.025.925-6.325-1.225-6.725-2.35-.225-.575-1.2-2.35-2.05-2.825-.7-.375-1.7-1.3-.025-1.325 1.575-.025 2.7 1.45 3.075 2.05 1.8 3.025 4.675 2.175 5.825 1.65.175-1.3.7-2.175 1.275-2.675-4.45-.5-9.1-2.225-9.1-9.875 0-2.175.775-3.975 2.05-5.375-.2-.5-.9-2.55.2-5.3 0 0 1.675-.525 5.5 2.05 1.6-.45 3.3-.675 5-.675s3.4.225 5 .675c3.825-2.6 5.5-2.05 5.5-2.05 1.1 2.75.4 4.8.2 5.3 1.275 1.4 2.05 3.175 2.05 5.375 0 7.675-4.675 9.375-9.125 9.875.725.625 1.35 1.825 1.35 3.7 0 2.675-.025 4.825-.025 5.5 0 .525.375 1.15 1.375.95a20.03 20.03 0 0 0 13.625-18.975c0-11.05-8.95-20-20-20"/></g><defs><filter id="a" width="168.653" height="168.653" x=".672" y=".673" color-interpolation-filters="sRGB" filterUnits="userSpaceOnUse"><feFlood flood-opacity="0" result="BackgroundImageFix"/><feColorMatrix in="SourceAlpha" result="hardAlpha" values="0 0 0 0 0 0 0 0 0 0 0 0 0 0 0 0 0 0 127 0"/><feOffset/><feGaussianBlur stdDeviation="15.058"/><feComposite in2="hardAlpha" operator="out"/><feColorMatrix values="0 0 0 0 0.864583 0 0 0 0 0.864583 0 0 0 0 0.864583 0 0 0 1 0"/><feBlend in2="BackgroundImageFix" result="effect1_dropShadow_849_160"/><feBlend in="SourceGraphic" in2="effect1_dropShadow_849_160" result="shape"/></filter></defs></svg>

<svg width="170" height="170" viewBox="0 0 170 170" fill="none" xmlns="http://www.w3.org/2000/svg">
<g filter="url(#filter0_d_849_160)">
<rect x="30.7891" y="30.79" width="108.42" height="108.42" rx="30.1167" fill="#1F1F1F"/>
<path d="M84.793 64.79C73.743 64.79 64.793 73.74 64.793 84.79C64.793 93.64 70.518 101.115 78.468 103.765C79.468 103.94 79.843 103.34 79.843 102.815C79.843 102.34 79.818 100.765 79.818 99.09C74.793 100.015 73.493 97.865 73.093 96.74C72.868 96.165 71.893 94.39 71.043 93.915C70.343 93.54 69.343 92.615 71.018 92.59C72.593 92.565 73.718 94.04 74.093 94.64C75.893 97.665 78.768 96.815 79.918 96.29C80.093 94.99 80.618 94.115 81.193 93.615C76.743 93.115 72.093 91.39 72.093 83.74C72.093 81.565 72.868 79.765 74.143 78.365C73.943 77.865 73.243 75.815 74.343 73.065C74.343 73.065 76.018 72.54 79.843 75.115C81.443 74.665 83.143 74.44 84.843 74.44C86.543 74.44 88.243 74.665 89.843 75.115C93.668 72.515 95.343 73.065 95.343 73.065C96.443 75.815 95.743 77.865 95.543 78.365C96.818 79.765 97.593 81.54 97.593 83.74C97.593 91.415 92.918 93.115 88.468 93.615C89.193 94.24 89.818 95.44 89.818 97.315C89.818 99.99 89.793 102.14 89.793 102.815C89.793 103.34 90.168 103.965 91.168 103.765C99.309 101.017 104.791 93.3826 104.793 84.79C104.793 73.74 95.843 64.79 84.793 64.79Z" fill="white"/>
</g>
<defs>
<filter id="filter0_d_849_160" x="0.672401" y="0.673378" width="168.653" height="168.653" filterUnits="userSpaceOnUse" color-interpolation-filters="sRGB">
<feFlood flood-opacity="0" result="BackgroundImageFix"/>
<feColorMatrix in="SourceAlpha" type="matrix" values="0 0 0 0 0 0 0 0 0 0 0 0 0 0 0 0 0 0 127 0" result="hardAlpha"/>
<feOffset/>
<feGaussianBlur stdDeviation="15.0583"/>
<feComposite in2="hardAlpha" operator="out"/>
<feColorMatrix type="matrix" values="0 0 0 0 0.864583 0 0 0 0 0.864583 0 0 0 0 0.864583 0 0 0 1 0"/>
<feBlend mode="normal" in2="BackgroundImageFix" result="effect1_dropShadow_849_160"/>
<feBlend mode="normal" in="SourceGraphic" in2="effect1_dropShadow_849_160" result="shape"/>
</filter>
</defs>
</svg>
